X: 1
T: McFerrins
C: Jane Rothfield
R: reel
S: Fiddle Hell Online 2020-11-05
Z: 2020 John Chambers <jc:trillian.mit.edu>
M: 4/4
L: 1/8
K: D
|:\
"D"D3E DEFA | "G"B2 "A"A4 F2 | "D"D3E DEFA | "G"B2A2 d4 |\
"Bm"e2d2 BcdB | "F#m"A2 F6 | "G"BABd BAFD | "A"E8 :|
|:\
"Em"e3f edBA | "Bm"GAB2 B4 | "Em"e3f edBd | "Bm"ef2e f4 |\
"Em"e3f edBA | "Bm"GAB2 B4 | "G"BABd BAFD | "A"E8 :|
